X: 1
T: THE OLD HORNED SHEEP
T: THE ONE-HORNED SHEEP
T: THE HUMOURS OF DONNYBROOK
Z: 2006 John Chambers <jc:trillian.mit.edu>
N: from copy of page from unknown book (BOOK SEVEN . 109)
R: jig
M: 6/8
K: G
|: (3d/e/f/ \
| "G"g2G GFG | "C"EGG "G"DGG | g2G GFG | "A7"EAG "D7"FED \
| "G"g2G GFG | "C"EGG "G"DGG | "C"EGG "D7"FGA | "G"BGG G3 :|
|: D \
| "G"BBd dBG | BBd d2G | BBd dBG | "Am"cBc "D7"A2c \
| "G"BBd dBG | BBd "D7"def | "Em"gfe dcB |1 "Am"ABG "D7"FE :|2 "Am"cAB "D7"c2 |]
